X: 36
T: the White Cockade
F: http://www.vwml.org/record/Urbani1800/3048/p15
B: Urbani & Liston "A Selection of Scotch, English Irish, and Foreign Airs", Edinburgh 1800, p.15 #1 
F: http://www.vwml.org/browse/browse-collections-dance-tune-books/browse-urbani1800
Z: 2014 John Chambers <jc:trillian.mit.edu>
N: Fixed the incorrect 3/4 time signature.
M: 2/4
L: 1/16
K: G
GA |\
B2B2 B2AG | B2B2 B2ge | d2B2 B2AG | F2A2 A2GA |\
B2B2 B2AG | A2B2 g2fg | (.b.a.g.f) (.a.g.f.e) | d2B2B2 :|
|: Bc |\
d2B2g2B2 | d2B2 B2cd | d2B2g2B2 | a2A2 A2GA |\
B2B2 B2AG | A2B2 g2fg | (.b.a.g.f) (.e.f.g.e) | d2B2B2 :|
T: Jumping Joan
F: http://www.vwml.org/record/Urbani1800/3048/p15
B: Urbani & Liston "A Selection of Scotch, English Irish, and Foreign Airs", Edinburgh 1800, p.15 #2 
F: http://www.vwml.org/browse/browse-collections-dance-tune-books/browse-urbani1800
Z: 2014 John Chambers <jc:trillian.mit.edu>
N: The rhythms aren't correct at the strain boundaries; not fixed.
M: C|
L: 1/8
K: G
|:\
g2dB G2BG | E2AE FDDF |\
g2dB G2BG | EAFD G2G2 :|\
g2 |\
efge fgab | gfge fddf |
efge fgag | fefd g2Bd |\
efge dBgB | ceBd AFED |\
GABG EGce | dBcA G2G2 |]
T: Jenny Sutton
F: http://www.vwml.org/record/Urbani1800/3048/p15
B: Urbani & Liston "A Selection of Scotch, English Irish, and Foreign Airs", Edinburgh 1800, p.15 #3
F: http://www.vwml.org/browse/browse-collections-dance-tune-books/browse-urbani1800 Z: 2014 John Chambers <jc:trillian.mit.edu>
M: C|
L: 1/8
K: G
|:\
G/G/G GB dBdB | G/G/G GB cAFA |\ G/G/G GB dBdB | decA B2G2 :|\ gGgG fGfG | efge dBAG |
gGgG fGfG | efge Te2d2 |\
gdEg fADf | eGce dBAG |\
G/G/G GB dBec | BgAf g2G2 |]

